X:1
T:Title
%%score 1 { 2 | ( 3 4 ) }
L:1/8
Q:1/4=110
M:4/4
K:Eb
V:1 treble nm="Grand Piano, Unnamed-000"
V:2 bass nm="Choir Pad, Eventide, 10.10.10.10"
V:3 bass 
V:4 bass 
V:1
 [EG]4 [DG]2 [DF]2 | E4 [EB]4 | [Ec]2 [DB]2 [EB]2 [FA]2 | [EG]8 | [EG]4 [EA]2 [EB]2 | [Ec]4 [EB]4 | %6
w: By~William~Henry~Monk,~1861 * *||||||
 [EA]2 F2 [EG]2 [E=A]2 | [DB]8 | [EG]4 [DG]2 [DF]2 | E4 [EB]4 | [EB]2 [EA]2 [=EA]2 [EG]2 | F8 | %12
w: ||||||
 [DF]4 [EG]2 [DA]2 | [EG]2 [DF]2 E2 [FA]2 | [EG]4 [DF]4 | E8 |] %16
w: ||||
V:2
 B,4 B,2 A,2 | G,4 E,4 | E,2 B,2 B,2 B,2 | B,8 | B,4 A,2 G,2 | A,4 G,4 | C2 B,2 B,2 E,2 | F,8 | %8
 G,2 A,2 B,2 A,2 | G,4[K:treble] E2 D2 | C2 CC C2[K:bass] B,2 | A,8 | B,4 B,2 B,2 | %13
 B,2 A,2 G,2 C2 | B,6 z2 | G,8 |] %16
V:3
 E,4 B,,2 B,,2 | C,4 G,,4 | A,,2 B,,2 C,2 D,2 | E,8 | E,2 D,2 C,2 B,,2 | A,,4 E,4 | %6
 F,2 D,2 E,2 C,2 | B,,8 | E,4 B,,2 B,,2 | C,4 G,,4 | A,,3 B,, C,2 C,2 | F,8 | A,4 G,2 F,2 | %13
 E,2 B,,2 C,2 A,,2 | B,,4 z2 A,2 | E,8 |] %16
V:4
 x8 | x8 | x8 | x8 | x8 | x8 | x8 | x8 | x8 | x8 | x8 | x8 | x8 | x8 | z4 B,,4 | x8 |] %16

